src/Resources/public/images/be-icons/firefighter_c4g.svg

<?xml version="1.0" encoding="UTF-8" standalone="no"?>
<!DOCTYPE svg PUBLIC "-//W3C//DTD SVG 1.1//EN" "http://www.w3.org/Graphics/SVG/1.1/DTD/svg11.dtd">
<svg width="100%" height="100%" viewBox="0 0 192 150" version="1.1" xmlns="http://www.w3.org/2000/svg" xmlns:xlink="http://www.w3.org/1999/xlink" xml:space="preserve" xmlns:serif="http://www.serif.com/" style="fill-rule:evenodd;clip-rule:evenodd;stroke-linecap:round;stroke-linejoin:round;stroke-miterlimit:1.5;">
    <g transform="matrix(0.973783,0,0,0.97943,4.07961,2.75886)">
        <path d="M185.4,24.939L185.4,122.578C185.4,134.512 175.655,144.2 163.653,144.2L24.932,144.2C12.93,144.2 3.185,134.512 3.185,122.578L3.185,24.939C3.185,13.005 12.93,3.317 24.932,3.317L163.653,3.317C175.655,3.317 185.4,13.005 185.4,24.939Z" style="fill:rgb(60,60,60);stroke:rgb(46,161,219);stroke-width:5.12px;"/>
    </g>
    <g transform="matrix(0.981531,0,0,0.981531,1.7712,1.38519)">
        <g transform="matrix(2.10725,0,0,2.10725,-281.677,-297.792)">
            <path d="M179.181,203.531C181.126,200.337 204.039,198.148 199.832,183.717C193.618,162.402 201.385,160.025 201.385,160.025L196.359,154.965C196.359,154.965 193.205,157.688 188.135,156.958C181.739,156.038 180.734,152.281 179.18,150.287C177.627,152.28 176.621,156.037 170.225,156.958C165.155,157.687 162.001,154.965 162.001,154.965L156.975,160.025C156.975,160.025 164.742,162.402 158.528,183.717C154.324,198.148 177.237,200.337 179.181,203.531Z" style="fill:rgb(46,161,219);fill-rule:nonzero;"/>
        </g>
        <g transform="matrix(1.53509,0,0,1.28166,-16.8696,-9.25244)">
            <path d="M93.8,65.3C93.4,65.2 93,65.1 92.5,65.1C89.1,65.1 85.5,69.3 82.9,73.3C82.5,70.3 81.2,67.1 79.7,63.4L79,61.7C76.8,56.2 78.6,50 80.7,46.4C80.9,46 80.9,45.6 80.7,45.2C80.5,44.9 80,44.7 79.6,44.8C71.5,46.6 64.7,57.5 64.3,68.5C63.3,67.6 62.3,67 61.4,66.4C59.4,65.2 58.1,64.5 58.5,60.8C58.5,60.3 58.3,59.9 57.8,59.7C57.3,59.5 56.8,59.7 56.6,60.1C48.7,72.6 53.6,92.3 63.1,98.4C63.5,98.7 64.1,98.6 64.5,98.2C64.7,98 64.8,97.5 64.7,97.2C64.4,95.3 63.6,89.9 64.3,85.9C64.8,86.4 65.3,86.7 65.8,87C66.7,87.5 67.5,87.9 67.9,89.3C68,89.7 68.4,89.9 68.7,90C69.1,90 69.5,89.9 69.7,89.6C70.7,88.2 71.2,86 71.7,83.7C72.3,80.6 73,77.5 74.9,76C74.1,78.3 73.9,81 74.9,83.6L75.3,84.6C76.5,87.6 77.4,89.7 76.9,91.7C76.8,92.2 77.1,92.8 77.6,92.9C78.1,93.1 78.7,92.9 78.9,92.4C79.8,90.5 81.1,88.8 82.2,87.7C81.8,89.2 81.6,90.9 81.4,92.7C81.2,94.6 81,96.6 80.5,98.3C80.4,98.7 80.5,99.2 80.9,99.4C81.1,99.5 81.3,99.6 81.5,99.6C81.7,99.6 81.9,99.5 82.1,99.4C83.7,98.4 85,97 86.1,95.4C89.3,90.7 89.9,84.6 90.4,79.1C90.9,74 91.3,69.2 93.9,66.8C94.2,66.5 94.3,66.2 94.2,65.8C94.4,65.7 94.1,65.4 93.8,65.3Z" style="fill:white;fill-rule:nonzero;"/>
        </g>
    </g>
</svg>

<?xml version="1.0" encoding="utf-8"?>
<!-- Generator: Adobe Illustrator 23.1.0, SVG Export Plug-In . SVG Version: 6.00 Build 0)  -->
<svg version="1.1" id="Ebene_2" xmlns="http://www.w3.org/2000/svg" xmlns:xlink="http://www.w3.org/1999/xlink" x="0px" y="0px"
	 viewBox="0 0 191.8 150" style="enable-background:new 0 0 191.8 150;" xml:space="preserve">
<style type="text/css">
	.st0{fill:#0B395D;}
	.st1{fill:none;stroke:#0B395D;stroke-width:2.4696;}
</style>
<g>
	<path class="st0" d="M44.2,104.4c0.2,0.1,0.4,0.2,0.4,0.4v1.2c0,0.3-0.1,0.4-0.4,0.4h-1.2c-1.6,0-2.3,0.1-2.3,1.5v2.1h8.6
		c0.3,0,0.4,0.1,0.4,0.4v13.9c0,0.3-0.1,0.4-0.4,0.4h-1.8c-0.3,0-0.4-0.1-0.4-0.4v-12.2h-6.4v12.2c0,0.3-0.1,0.4-0.4,0.4h-1.8
		c-0.3,0-0.4-0.1-0.4-0.4v-12.2h-2c-0.3,0-0.4-0.1-0.4-0.4v-1.3c0-0.3,0.1-0.4,0.4-0.4h2v-2.7c0-3,2.5-3.1,4.1-3.1
		C42.8,104.2,43.6,104.3,44.2,104.4z M50,105.7c0,1-0.5,1.6-1.6,1.6c-1,0-1.6-0.6-1.6-1.6c0-1,0.6-1.6,1.6-1.6
		C49.4,104.1,50,104.7,50,105.7z"/>
	<path class="st0" d="M60.8,110.2c0.3,0.1,0.4,0.2,0.4,0.5v1.1c0,0.3-0.2,0.4-0.4,0.4h-2.4c-1.9,0-2.4,0.3-2.4,1.5v10.7
		c0,0.3-0.1,0.4-0.4,0.4h-1.8c-0.3,0-0.4-0.1-0.4-0.4V113c0-3,2.7-3.1,4.3-3.1C58.4,109.9,60.3,110,60.8,110.2z"/>
	<path class="st0" d="M75.4,117v0.8c0,0.5-0.1,0.8-1,0.8h-8.7c0.1,3.3,0.7,4.1,3.7,4.1h4.5c0.3,0,0.4,0.1,0.4,0.4v1.2
		c0,0.2-0.1,0.4-0.4,0.4c-1.4,0.2-2.9,0.2-4.6,0.2c-5.2,0-6.3-1.5-6.3-7.5s1.1-7.5,6.3-7.5C74.2,109.9,75.4,111.3,75.4,117z
		 M65.7,116.4h7.1c-0.1-3.4-0.6-4.3-3.5-4.3C66.3,112.1,65.7,113,65.7,116.4z"/>
	<path class="st0" d="M85.7,104.4c0.2,0.1,0.4,0.2,0.4,0.4v1.2c0,0.3-0.1,0.4-0.4,0.4h-1.2c-1.6,0-2.3,0.1-2.3,1.5v2.1h8.6
		c0.3,0,0.4,0.1,0.4,0.4v13.9c0,0.3-0.1,0.4-0.4,0.4H89c-0.3,0-0.4-0.1-0.4-0.4v-12.2h-6.4v12.2c0,0.3-0.1,0.4-0.4,0.4h-1.8
		c-0.3,0-0.4-0.1-0.4-0.4v-12.2h-2c-0.3,0-0.4-0.1-0.4-0.4v-1.3c0-0.3,0.1-0.4,0.4-0.4h2v-2.7c0-3,2.5-3.1,4.1-3.1
		C84.3,104.2,85.1,104.3,85.7,104.4z M91.5,105.7c0,1-0.5,1.6-1.6,1.6c-1,0-1.6-0.6-1.6-1.6c0-1,0.6-1.6,1.6-1.6
		C90.9,104.1,91.5,104.7,91.5,105.7z"/>
	<path class="st0" d="M106.6,110.3c0.3,0,0.4,0.2,0.4,0.5v12.6c0,5.3-1.1,6.8-6.3,6.8c-1.1,0-2.6-0.1-4-0.2c-0.2,0-0.4-0.2-0.4-0.4
		v-1.2c0-0.3,0.1-0.4,0.4-0.4h3.9c3.1,0,3.8-0.7,3.8-3.1v-0.2c-1.2,0.2-2.3,0.2-3.6,0.2c-5.2,0-6.3-1.5-6.3-7.5
		c0-5.9,1.1-7.5,6.4-7.5C103.6,109.9,105.4,110.1,106.6,110.3z M100.9,112.1c-3.4,0-3.8,1-3.8,5.2c0,4.2,0.4,5.2,3.8,5.2
		c1.1,0,2.4-0.1,3.5-0.2v-10.3H100.9z"/>
	<path class="st0" d="M113.1,104.4c0.3,0,0.4,0.1,0.4,0.4v5.2c1.3-0.1,2.7-0.1,3.5-0.1c4.9,0,6.4,0.6,6.4,6.3v8.2
		c0,0.3-0.1,0.4-0.4,0.4h-1.8c-0.3,0-0.4-0.1-0.4-0.4v-7.9c0-4.1-0.8-4.3-3.5-4.3h-3.8v12.2c0,0.3-0.1,0.4-0.4,0.4h-1.8
		c-0.3,0-0.4-0.1-0.4-0.4v-19.5c0-0.3,0.1-0.4,0.4-0.4H113.1z"/>
	<path class="st0" d="M129.9,105.9c0.3-0.1,0.5,0.1,0.5,0.3v3.7h2.9c0.3,0,0.4,0.1,0.4,0.4v1.3c0,0.3-0.1,0.4-0.4,0.4h-2.9v9
		c0,1.2,0.3,1.5,1.8,1.5h1.3c0.3,0,0.4,0.1,0.4,0.4v1.3c0,0.2-0.1,0.4-0.4,0.4c-0.5,0.1-1.3,0.2-1.5,0.2c-2,0-4.2,0-4.2-3.1v-9.7
		h-1.5c-0.3,0-0.4-0.1-0.4-0.4v-1.3c0-0.3,0.1-0.4,0.4-0.4h1.5v-3.2c0-0.3,0.1-0.4,0.4-0.4L129.9,105.9z"/>
	<path class="st0" d="M148.4,117v0.8c0,0.5-0.1,0.8-1,0.8h-8.7c0.1,3.3,0.7,4.1,3.7,4.1h4.5c0.3,0,0.4,0.1,0.4,0.4v1.2
		c0,0.2-0.1,0.4-0.4,0.4c-1.4,0.2-2.9,0.2-4.6,0.2c-5.2,0-6.3-1.5-6.3-7.5s1.1-7.5,6.3-7.5C147.1,109.9,148.3,111.3,148.4,117z
		 M138.6,116.4h7.1c-0.1-3.4-0.6-4.3-3.5-4.3C139.3,112.1,138.7,113,138.6,116.4z"/>
	<path class="st0" d="M158.7,110.2c0.3,0.1,0.4,0.2,0.4,0.5v1.1c0,0.3-0.2,0.4-0.4,0.4h-2.4c-1.9,0-2.4,0.3-2.4,1.5v10.7
		c0,0.3-0.1,0.4-0.4,0.4h-1.8c-0.3,0-0.4-0.1-0.4-0.4V113c0-3,2.7-3.1,4.3-3.1C156.3,109.9,158.2,110,158.7,110.2z"/>
</g>
<g>
	<path class="st0" d="M134.4,41.1c-0.9-0.2-1.9-0.4-2.9-0.4c-1.2,0-2.6,0.2-3.9,0.5c-1,0.3-2,0.6-3,1.1c-3.6,1.8-7.9,1.9-7.9,1.9
		s-4.2-0.1-7.9-1.9c-1-0.5-2-0.9-3-1.1c-1.3-0.4-2.7-0.5-3.9-0.5c-1.1,0-2.1,0.1-3,0.4c-0.5,0.1-0.8,0.6-0.7,1.1
		c0.1,1.7,0.4,5.6,5.7,9.6v-5.5c0,0,1.2,0.4,2,1V51c0,5.9,4.8,10.8,10.8,10.8h0c5.9,0,10.8-4.8,10.8-10.8v-3.9c0.9-0.6,1.9-1,1.9-1
		v5.5c5.3-4,5.6-7.9,5.7-9.6C135.2,41.6,134.9,41.2,134.4,41.1z"/>
	<path class="st0" d="M119.1,27.1h-4.9c-0.6,0-1,0.5-1,1v1c-4.2,1.1-7.4,4.9-7.4,9.5v0.4c1.2,0.3,2.4,0.7,3.6,1.3
		c3.2,1.6,6.9,1.8,7.3,1.8c0.4,0,4.1-0.2,7.3-1.8c1.1-0.6,2.3-1,3.6-1.3v-0.4c0-4.6-3.2-8.4-7.4-9.5v-1
		C120.1,27.6,119.7,27.1,119.1,27.1z M116.7,37.8c-1.3,0-2.4-1.1-2.4-2.4c0-0.3,0.1-0.6,0.2-0.9c0.4-0.9,1.2-1.5,2.2-1.5
		c1,0,1.9,0.6,2.2,1.5c0.1,0.3,0.2,0.6,0.2,0.9C119.1,36.7,118,37.8,116.7,37.8z"/>
	<path class="st0" d="M119.5,63.8h-5.7c-7.4,0-13.3,6-13.3,13.3l0,0h32.4l0,0C132.9,69.8,126.9,63.8,119.5,63.8z"/>
</g>
<path class="st0" d="M93.8,65.3c-0.4-0.1-0.8-0.2-1.3-0.2c-3.4,0-7,4.2-9.6,8.2c-0.4-3-1.7-6.2-3.2-9.9l-0.7-1.7
	c-2.2-5.5-0.4-11.7,1.7-15.3c0.2-0.4,0.2-0.8,0-1.2c-0.2-0.3-0.7-0.5-1.1-0.4c-8.1,1.8-14.9,12.7-15.3,23.7c-1-0.9-2-1.5-2.9-2.1
	c-2-1.2-3.3-1.9-2.9-5.6c0-0.5-0.2-0.9-0.7-1.1c-0.5-0.2-1,0-1.2,0.4c-7.9,12.5-3,32.2,6.5,38.3c0.4,0.3,1,0.2,1.4-0.2
	c0.2-0.2,0.3-0.7,0.2-1c-0.3-1.9-1.1-7.3-0.4-11.3c0.5,0.5,1,0.8,1.5,1.1c0.9,0.5,1.7,0.9,2.1,2.3c0.1,0.4,0.5,0.6,0.8,0.7
	c0.4,0,0.8-0.1,1-0.4c1-1.4,1.5-3.6,2-5.9c0.6-3.1,1.3-6.2,3.2-7.7c-0.8,2.3-1,5,0,7.6l0.4,1c1.2,3,2.1,5.1,1.6,7.1
	c-0.1,0.5,0.2,1.1,0.7,1.2c0.5,0.2,1.1,0,1.3-0.5c0.9-1.9,2.2-3.6,3.3-4.7c-0.4,1.5-0.6,3.2-0.8,5c-0.2,1.9-0.4,3.9-0.9,5.6
	c-0.1,0.4,0,0.9,0.4,1.1c0.2,0.1,0.4,0.2,0.6,0.2c0.2,0,0.4-0.1,0.6-0.2c1.6-1,2.9-2.4,4-4c3.2-4.7,3.8-10.8,4.3-16.3
	c0.5-5.1,0.9-9.9,3.5-12.3c0.3-0.3,0.4-0.6,0.3-1C94.4,65.7,94.1,65.4,93.8,65.3z"/>
<path class="st1" d="M26.8,6.6c0,0-19.2,0-19.2,19.2V125c0,0,0,19.2,19.2,19.2h139.4c0,0,19.2,0,19.2-19.2V25.8
	c0,0,0-19.2-19.2-19.2H26.8z"/>
</svg>
